!!!!SEGMENT: Ser1002d-Missa_Novem_lectionum-Sanctus.krn
!!!id: Ser1002d
!!!OTL: Sanctus
!!!AGN: Mass; Sanctus
!!!voices: 2–4
!!!COM: Claudin de Sermisy
!!!OPR: Missa Novem lectionum
**kern	**kern	**kern	**kern
*part4	*part3	*part2	*part1
*staff4	*staff3	*staff2	*staff1
*I"Bassus	*I"Tenor	*I"Altus	*I"Superius
*I'B	*I'T	*I'A	*I'S
*clefF4	*clefGv2	*clefGv2	*clefG2
*k[b-]	*k[b-]	*k[b-]	*k[b-]
*F:	*F:	*F:	*F:
*M2/1	*M2/1	*M2/1	*M2/1
*met(C|)	*met(C|)	*met(C|)	*met(C|)
!!section: Sanctus
!!!OMD: Sanctus
=1	=1	=1	=1
!	!	!	!LO:TX:a:t=Cantus firmus&colon; Missa "Dominator Deus" \n
0r	0r	0F	0r
=2	=2	=2	=2
0r	0r	1G	0r
.	.	2A	.
.	.	[2B-y	.
=3	=3	=3	=3
0r	0r	4B-]	0f
.	.	4A	.
.	.	4B-y	.
.	.	4G	.
.	.	1A	.
=4	=4	=4	=4
0r	0r	2G	1g
.	.	1c	.
.	.	.	2a
.	.	2B-y	[2b-y
=5	=5	=5	=5
0r	0r	2G	4b-]
.	.	.	4a
.	.	1d	4b-y
.	.	.	4g
.	.	.	1a
.	.	2c	.
=6	=6	=6	=6
0C	0r	0e	2g
.	.	.	2.cc
.	.	.	4b-y
.	.	.	4a
.	.	.	4g
=7	=7	=7	=7
1D	0r	1d	1f
2E	.	2.c	2g
[2F	.	.	[2a
.	.	4B-y	.
=8	=8	=8	=8
4F]	0r	2c	4a]
4E	.	.	4g
4F	.	1d	4a
4D	.	.	4f
1E	.	.	2.g
.	.	2c#i	.
.	.	.	4a
=9	=9	=9	=9
0D	0r	2.d	2b-y
.	.	.	2.a
.	.	4c	.
.	.	4d	.
.	.	4e	4g
.	.	[2f	4a
.	.	.	4b-y
=10	=10	=10	=10
0r	0F	4f]	2cc
.	.	4e	.
.	.	2d	1b-y
.	.	1c	.
.	.	.	2a
=11	=11	=11	=11
0r	1G	4B-y	1b-y
.	.	4c	.
.	.	4d	.
.	.	4B-y	.
.	2A	2c	4a
.	.	.	4g
.	[2B-y	2d	4f
.	.	.	4e
=12	=12	=12	=12
2r	4B-]	2D	2f
.	4A	.	.
2GG	4B-y	1d	1g
.	4G	.	.
1D	1A	.	.
.	.	2d	2f#i
=13	=13	=13	=13
1E	1G	2B-y	1g
.	.	2c	.
1D	2r	[1d	[1f
.	2A	.	.
=14	=14	=14	=14
2r	1B-y	1d]	1f]
2D	.	.	.
1E	[1c	1G	1r
=15	=15	=15	=15
1.F	2c]	0r	0r
.	2B-y	.	.
.	1A	.	.
2E	.	.	.
=16	=16	=16	=16
1D	1.B-y	0r	0r
[1E-X	.	.	.
.	2A	.	.
=17	=17	=17	=17
2E-]	1G	0r	0r
2D	.	.	.
2C	2.A	.	.
[2D	.	.	.
.	4G	.	.
=18	=18	=18	=18
4D]	2F	0r	1r
4C	.	.	.
2BB-y	1G	.	.
1AA	.	.	1a
.	2F#i	.	.
=19	=19	=19	=19
1GG	1G	1d	1b-y
1r	1r	1e	[1cc
=20	=20	=20	=20
0r	0r	1.f	2cc]
.	.	.	2b-y
.	.	.	1a
.	.	2e	.
=21	=21	=21	=21
0r	0r	1d	1.b-y
.	.	[1e	.
.	.	.	2a
=22	=22	=22	=22
0r	0r	2e]	1g
.	.	2d	.
.	.	2c	2.a
.	.	[2d	.
.	.	.	4g
=23	=23	=23	=23
0D	0r	4d]	2f
.	.	4c	.
.	.	2B-y	1g
.	.	1A	.
.	.	.	2f#i
=24	=24	=24	=24
1E	0r	2G	1g
.	.	1c	.
[1F	.	.	[1a
.	.	2A	.
=25	=25	=25	=25
2F]	0A	2A	2a]
2D	.	1d	2f
1D	.	.	1f
.	.	[2d	.
=26	=26	=26	=26
1G	1B-y	4d]	1g
.	.	4c	.
.	.	4d	.
.	.	4e	.
2.F	[1c	1f	1a
4E	.	.	.
=27	=27	=27	=27
2C	2c]	2e	2g
2.D	2A	2d	2f
.	2A	[1d	[1f
4C	.	.	.
4BB-y	[2B-y	.	.
4AA	.	.	.
=28	=28	=28	=28
2BB-y	4B-]	2d]	2f]
.	4A	.	.
2.C	4G	2c	2e
.	4F	.	.
.	2G	[1c	1e
4BB-y	.	.	.
4AA	[2A	.	.
4GG	.	.	.
=29	=29	=29	=29
2AA	2A]	2c]	2c
2BB-y	2G	2B-y	2d
1C	[1G	2G	1e
.	.	[2c	.
=30	=30	=30	=30
0D	2G]	2c]	0f
.	4F	4BnXi	.
.	4E	4A	.
.	1F	1BnXi	.
=31	=31	=31	=31
0C	[0Gl	0c	0e
=32	=32	=32	=32
0GGl	0G]	0B-yl	0dl
=33||	=33||	=33||	=33||
*M2/1	*M2/1	*M2/1	*M2/1
*met(C|)	*met(C|)	*met(C|)	*met(C|)
!!section: Pleni sunt
!!!OMD: Pleni sunt
0r	1F	0r	0r
.	1F	.	.
=34	=34	=34	=34
1r	1G	0r	0r
1C	1G	.	.
=35	=35	=35	=35
1C	1G	0r	0r
1D	2.F	.	.
.	4G	.	.
=36	=36	=36	=36
1D	2A	0r	0r
.	2.B-y	.	.
1D	.	.	.
.	4G	.	.
.	4A	.	.
.	4B-y	.	.
=37	=37	=37	=37
2.C	2.c	0r	0r
4D	4B-y	.	.
2E	2G	.	.
[2F	[2A	.	.
=38	=38	=38	=38
4F]	4A]	0r	0r
4D	4B-y	.	.
4E	4c	.	.
4F	4A	.	.
2.G	4B-y	.	.
.	4c	.	.
.	[2d	.	.
4F	.	.	.
=39	=39	=39	=39
4D	4d]	0r	0r
4E	4c	.	.
2.F	4A	.	.
.	4B-y	.	.
.	4c	.	.
4E	4A	.	.
4D	[2B-y	.	.
4C	.	.	.
=40	=40	=40	=40
4D	2B-]	0r	0r
4C	.	.	.
4BB-y	1A	.	.
4AA	.	.	.
1BB-y	.	.	.
.	2G	.	.
=41	=41	=41	=41
1AA	[0A	0r	0r
[1F	.	.	.
=42	=42	=42	=42
2F]	0A]	0r	0r
2E	.	.	.
2D	.	.	.
4C	.	.	.
4BB-y	.	.	.
=43	=43	=43	=43
2C	1r	0r	0r
2D	.	.	.
4GG	[1B-y	.	.
4AA	.	.	.
4BB-y	.	.	.
4C	.	.	.
=44	=44	=44	=44
4D	2B-]	0r	0r
4E	.	.	.
1F	2A	.	.
.	1G	.	.
2E	.	.	.
=45	=45	=45	=45
1F	0F	0r	0r
2r	.	.	.
[2D	.	.	.
=46	=46	=46	=46
4D]	2.A	0r	0r
4C	.	.	.
4D	.	.	.
4E	4G	.	.
2F	2A	.	.
[2D	2B-y	.	.
=47	=47	=47	=47
2D]	2A	0r	0r
1E-X	2G	.	.
.	2.c	.	.
2C	.	.	.
.	4B-y	.	.
=48	=48	=48	=48
1D	4A	0r	0r
.	4G	.	.
.	1B-y	.	.
1E	.	.	.
.	4A	.	.
.	4G	.	.
=49	=49	=49	=49
2.D	2B-y	0r	0r
.	2.A	.	.
4E	.	.	.
4F	.	.	.
4D	4B-y	.	.
2E	4c	.	.
.	4A	.	.
=50	=50	=50	=50
2D	2B-y	0r	0r
2.C	1A	.	.
4BB-y	.	.	.
2GG	[2G	.	.
=51	=51	=51	=51
1AA	2G]	0r	0r
.	2F#i	.	.
1GG	[1G	.	.
=52	=52	=52	=52
2r	1G]	0r	0r
1C	.	.	.
.	1A	.	.
2D	.	.	.
=53	=53	=53	=53
2BB-y	1G	0r	0r
2C	.	.	.
2D	1F	.	.
[2BB-y	.	.	.
=54	=54	=54	=54
2BB-]	1G	0r	0r
1C	.	.	.
.	1G	.	.
4BB-y	.	.	.
4AA	.	.	.
=55	=55	=55	=55
2BB-y	1G	0r	0r
1C	.	.	.
.	1A	.	.
2D	.	.	.
=56	=56	=56	=56
2E-i	2.G	0r	0r
2C	.	.	.
.	4A	.	.
2D	2B-y	.	.
2C	2c	.	.
=57	=57	=57	=57
2.F	2A	0r	0r
.	2.d	.	.
4E	.	.	.
2D	.	.	.
.	4c	.	.
[2G	4B-y	.	.
.	4A	.	.
=58	=58	=58	=58
4G]	2B-y	0r	0r
4F	.	.	.
4E	1c	.	.
4D	.	.	.
4C	.	.	.
4D	.	.	.
4E	2B-y	.	.
4D	.	.	.
=59	=59	=59	=59
4C	2A	0r	0r
4BB-y	.	.	.
4AA	1G	.	.
4GG	.	.	.
1AA	.	.	.
.	2F#i	.	.
=60	=60	=60	=60
0GGl	0Gl	0r	0r
=61||	=61||	=61||	=61||
*M2/1	*M2/1	*M2/1	*M2/1
*met(C|)	*met(C|)	*met(C|)	*met(C|)
!!section: Osanna
!!!OMD: Osanna
1G	0G	0d	[0g
2GG	.	.	.
[2G	.	.	.
=62	=62	=62	=62
4G]	1.B-y	1d	1g]
4F	.	.	.
4E	.	.	.
4D	.	.	.
1E	.	1G	1g
.	2c	.	.
=63	=63	=63	=63
1D	1d	1.A	2.f
.	.	.	4g
[1F	[1c	.	4a
.	.	.	4b-y
.	.	[2f	[2a
=64	=64	=64	=64
2F]	2c]	4f]	2a]
.	.	4e	.
2G	2B-y	4d	1g
.	.	4c	.
1D	1A	1d	.
.	.	.	2f#i
=65	=65	=65	=65
2GG	1G	2r	1g
1G	.	2.d	.
.	1A	.	2r
.	.	4e	.
2F	.	2f	2cc
=66	=66	=66	=66
2G	1.B-y	1d	2.b-y
2GG	.	.	.
.	.	.	4a
1BB-y	.	1d	2g
.	2A	.	2f
=67	=67	=67	=67
1C	1G	2.c	1e
.	.	4B-y	.
2.D	[1F	2A	4d
.	.	.	4e
.	.	2d	4f
4E	.	.	4g
=68	=68	=68	=68
2F	1F]	2c	2a
2.BB-y	.	2.d	2.b-y
.	1r	.	.
4C	.	4c	4a
2D	.	[2f	4g
.	.	.	4f
=69	=69	=69	=69
1C	0r	2f]	1g
.	.	2e	.
2D	.	2f	1f
2BB-y	.	2d	.
=70	=70	=70	=70
2C	1A	2e	1r
2D	.	2f	.
4GG	[1B-y	1d	2r
4AA	.	.	.
4BB-y	.	.	[2f
4C	.	.	.
=71	=71	=71	=71
4D	2B-]	1r	4f]
4E	.	.	4g
2F	2A	.	4a
.	.	.	4b-y
1C	1G	1e	1cc
=72	=72	=72	=72
2.D	1F	1.f	2.a
4E	.	.	4g
2F	1r	.	4a
.	.	.	4b-y
2C	.	2e	[2cc
=73	=73	=73	=73
1G	1r	1d	2cc]
.	.	.	2bnXi
[1C	1G	2.c	[1cc
.	.	4d	.
=74	=74	=74	=74
1C]	1G	1e	2cc]
.	.	.	4b-y
.	.	.	4a
2r	2.F	[1d	1a
2D	.	.	.
.	4G	.	.
=75	=75	=75	=75
1D	2A	1d]	0r
.	2B-y	.	.
2.C	2A	1r	.
.	[2G	.	.
4D	.	.	.
=76	=76	=76	=76
4E	4G]	0r	1r
4F	4A	.	.
2.G	4B-y	.	.
.	4A	.	.
.	4B-y	.	1g
4F	4c	.	.
4E	[2d	.	.
4D	.	.	.
=77	=77	=77	=77
1E	2d]	1r	1g
.	2c#i	.	.
[1D	1d	2r	2.f
.	.	2d	.
.	.	.	4g
=78	=78	=78	=78
1D]	0r	1d	2a
.	.	.	2b-y
1r	.	2.c	2a
.	.	.	[2g
.	.	4d	.
=79	=79	=79	=79
0r	0r	2e	2g]
.	.	2.f	2.a
.	.	4e	4g
.	.	2d	4a
.	.	.	4b-y
=80	=80	=80	=80
1r	0r	2c	4cc
.	.	.	4a
.	.	2d	2b-y
2r	.	4c	4a
.	.	4B-y	4g
2D	.	4A	4f
.	.	4G	4e
=81	=81	=81	=81
1D	1r	1A	2.f
.	.	.	8eL
.	.	.	8fJ
1C	1G	2r	[1g
.	.	[2c	.
=82	=82	=82	=82
1E	1G	2c]	1g]
.	.	2B-y	.
1D	1F	[1d	1a
=83	=83	=83	=83
[0GG	2.G	1d]	1b-y
.	4A	.	.
.	2B-y	[1d	[1g
.	2G	.	.
=84	=84	=84	=84
1GG]	2B-y	2d]	1g]
.	4A	2e	.
.	4G	.	.
[1D	[1F	2f	[1a
.	.	2d	.
=85	=85	=85	=85
2D]	1F]	2f	1a]
2E	.	4e	.
.	.	4d	.
2F	[1A	2c	[1a
2D	.	2d	.
=86	=86	=86	=86
2.F	2A]	2c	2a]
.	2B-y	2d	4g
4E	.	.	4f
2C	2c	4e	4e
.	.	4f	4d
2D	2F	[2d	[2a
=87	=87	=87	=87
1E	1G	4d]	4a]
.	.	8c#iL	4g
.	.	8B-yJ	.
.	.	2c#i	1g
1D	1A	1d	.
.	.	.	2f#i
=88	=88	=88	=88
0GGl	0Gl	0dl	0gl
=89||	=89||	=89||	=89||
*M2/1	*M2/1	*M2/1	*M2/1
*met(C|)	*met(C|)	*met(C|)	*met(C|)
!!section: Benedictus
!!!OMD: Benedictus
0r	0r	1c	0r
.	.	1c	.
=90	=90	=90	=90
0r	0r	1d	1r
.	.	2.d	1f
.	.	4c	.
=91	=91	=91	=91
0r	0r	4B-y	1f
.	.	4A	.
.	.	1B-y	.
.	.	.	1g
.	.	2c	.
=92	=92	=92	=92
0r	0r	4G	1g
.	.	4A	.
.	.	4B-y	.
.	.	4c	.
.	.	4d	2.f
.	.	4e	.
.	.	[2f	.
.	.	.	4g
=93	=93	=93	=93
0r	0r	2f]	2a
.	.	2d	1b-y
.	.	1e	.
.	.	.	4a
.	.	.	4g
=94	=94	=94	=94
0r	0r	0d	2b-y
.	.	.	1a
.	.	.	[2dd
=95	=95	=95	=95
0r	0r	2r	4dd]
.	.	.	4cc
.	.	2d	4b-y
.	.	.	4a
.	.	2e	2g
.	.	2c	2a
=96	=96	=96	=96
0r	0r	2d	2.f
.	.	2B-y	.
.	.	.	4g
.	.	2c	2a
.	.	[2d	[2b-y
=97	=97	=97	=97
0r	0r	4d]	4b-]
.	.	4c	4a
.	.	2A	1a
.	.	1B-y	.
.	.	.	2g
=98	=98	=98	=98
0r	0r	1A	[0a
.	.	2r	.
.	.	[2d	.
=99	=99	=99	=99
0r	0r	2d]	0a]
.	.	4c	.
.	.	4B-y	.
.	.	2c	.
.	.	[2d	.
=100	=100	=100	=100
0r	0r	2d]	2r
.	.	4G	1b-y
.	.	4A	.
.	.	4B-y	.
.	.	4c	.
.	.	4d	4a
.	.	4e	4g
=101	=101	=101	=101
0r	0r	2f	2a
.	.	1g	2.b-y
.	.	.	4a
.	.	[2f	4g
.	.	.	4f
=102	=102	=102	=102
0r	0r	2f]	1g
.	.	2e	.
.	.	2f	1f
.	.	[2B-y	.
=103	=103	=103	=103
0r	0r	2B-]	2r
.	.	4A	1f
.	.	4G	.
.	.	2A	.
.	.	2B-y	4e
.	.	.	4d
=104	=104	=104	=104
0r	0r	2G	2e
.	.	2A	2f
.	.	2B-y	2d
.	.	2c	[2g
=105	=105	=105	=105
0r	0r	4B-y	4g]
.	.	4A	4f
.	.	4G	1f
.	.	4F	.
.	.	1G	.
.	.	.	2e
=106	=106	=106	=106
0r	0r	0F	1f
.	.	.	2r
.	.	.	[2a
=107	=107	=107	=107
0r	0r	1A	2a]
.	.	.	1cc
.	.	[1c	.
.	.	.	4b-y
.	.	.	4a
=108	=108	=108	=108
0r	0r	2c]	2g
.	.	2A	2.a
.	.	2B-y	.
.	.	.	4g
.	.	2c	[2g
=109	=109	=109	=109
0r	0r	1A	2g]
.	.	.	2f#i
.	.	2G	1g
.	.	[2c	.
=110	=110	=110	=110
0r	0r	2c]	1a
.	.	2A	.
.	.	2B-y	1g
.	.	2c	.
=111	=111	=111	=111
0r	0r	2d	1f
.	.	1f	.
.	.	.	2.g
.	.	2e	.
.	.	.	4a
=112	=112	=112	=112
0r	0r	2d	2b-y
.	.	2c	2cc
.	.	2.d	2b-y
.	.	.	[2a
.	.	4e	.
=113	=113	=113	=113
0r	0r	2f	4a]
.	.	.	4g
.	.	2.d	4f
.	.	.	4e
.	.	.	2f
.	.	4c	.
.	.	4B-y	2g
.	.	4A	.
=114	=114	=114	=114
0r	0r	4B-y	4d
.	.	4c	4e
.	.	4d	4f
.	.	4B-y	4g
.	.	2c	2a
.	.	2d	[2b-y
=115	=115	=115	=115
0r	0r	2G	4b-]
.	.	.	4a
.	.	2B-y	1g
.	.	1A	.
.	.	.	2f#i
=116	=116	=116	=116
0r	0r	0Gl	0gl
==	==	==	==
*-	*-	*-	*-
!!!system-decoration: [*]
!!!RDF**kern: i = editorial accidental
!!!RDF**kern: l = terminal long
!!!ENC: Max Blistain
!!!END: 2025/10/28
!!!EED: Benjamin Ory
!!!EEV: 2025/11/11
!!!YEC: Copyright 2025 Benjamin Ory, All Rights Reserved
!!!ONB: Translated from MusicXML on 2025/11/11